preferences/22/preferences-virtualization-vm-migrate.svg

<?xml version="1.0" encoding="UTF-8" standalone="no"?>
<!-- Created with Inkscape (http://www.inkscape.org/) -->

<svg
   width="22"
   height="22"
   version="1.1"
   viewBox="0 0 22 22"
   id="svg22"
   sodipodi:docname="preferences-virtualization-vm-migrate.svg"
   inkscape:version="1.1.2 (0a00cf5339, 2022-02-04)"
   xmlns:inkscape="http://www.inkscape.org/namespaces/inkscape"
   xmlns:sodipodi="http://sodipodi.sourceforge.net/DTD/sodipodi-0.dtd"
   xmlns:xlink="http://www.w3.org/1999/xlink"
   xmlns="http://www.w3.org/2000/svg"
   xmlns:svg="http://www.w3.org/2000/svg">
  <sodipodi:namedview
     id="namedview24"
     pagecolor="#ffffff"
     bordercolor="#666666"
     borderopacity="1.0"
     inkscape:showpageshadow="2"
     inkscape:pageopacity="0.0"
     inkscape:pagecheckerboard="0"
     inkscape:deskcolor="#d1d1d1"
     showgrid="false"
     inkscape:zoom="18.116076"
     inkscape:cx="0.33119755"
     inkscape:cy="14.131095"
     inkscape:window-width="3440"
     inkscape:window-height="1356"
     inkscape:window-x="0"
     inkscape:window-y="0"
     inkscape:window-maximized="1"
     inkscape:current-layer="g54"
     inkscape:pageshadow="2" />
  <defs
     id="defs12">
    <linearGradient
       id="linearGradient1005-3-3"
       x1="5.2535"
       x2="9.3823996"
       y1="15.383"
       y2="2.9421"
       gradientTransform="matrix(0.99999,0,0,0.99999,1.632,-0.61743)"
       gradientUnits="userSpaceOnUse">
      <stop
         stop-color="#fa8200"
         offset="0"
         id="stop2" />
      <stop
         stop-color="#ff9600"
         offset=".36953"
         id="stop4" />
      <stop
         stop-color="#ffb400"
         offset="1"
         id="stop6" />
    </linearGradient>
    <filter
       id="filter4014"
       x="-0.062499933"
       y="-0.057692993"
       width="1.1249999"
       height="1.115386"
       color-interpolation-filters="sRGB">
      <feGaussianBlur
         stdDeviation="1.093751"
         id="feGaussianBlur9" />
    </filter>
    <linearGradient
       inkscape:collect="always"
       xlink:href="#linearGradient3487"
       id="linearGradient3403"
       gradientUnits="userSpaceOnUse"
       x1="6.9491749"
       y1="4.5549412"
       x2="11.215498"
       y2="59.052471" />
    <linearGradient
       id="linearGradient3487">
      <stop
         style="stop-color:#32373c;stop-opacity:1"
         offset="0"
         id="stop3481" />
      <stop
         id="stop3483"
         offset="0.36804965"
         style="stop-color:#1a1a1a;stop-opacity:1" />
      <stop
         style="stop-color:#31363b;stop-opacity:1"
         offset="1"
         id="stop3485" />
    </linearGradient>
    <linearGradient
       inkscape:collect="always"
       xlink:href="#linearGradient20604"
       id="linearGradient20558"
       gradientUnits="userSpaceOnUse"
       x1="25.802212"
       y1="20.373846"
       x2="25.111048"
       y2="58.912758" />
    <linearGradient
       id="linearGradient20604">
      <stop
         id="stop20598"
         offset="0"
         style="stop-color:#3d3d3d;stop-opacity:1" />
      <stop
         style="stop-color:#000000;stop-opacity:1"
         offset="0.61772454"
         id="stop20600" />
      <stop
         id="stop20602"
         offset="1"
         style="stop-color:#3d3d3d;stop-opacity:1" />
    </linearGradient>
    <filter
       inkscape:collect="always"
       style="color-interpolation-filters:sRGB"
       id="filter20720"
       x="-0.017024755"
       y="-0.016457183"
       width="1.0340491"
       height="1.0329144">
      <feGaussianBlur
         inkscape:collect="always"
         stdDeviation="0.14745661"
         id="feGaussianBlur20722" />
    </filter>
    <linearGradient
       gradientTransform="translate(0.36067797,-0.13016949)"
       xlink:href="#linearGradient4555"
       id="linearGradient4557"
       x1="43.499737"
       y1="64.011795"
       x2="44.141731"
       y2="0.30621234"
       gradientUnits="userSpaceOnUse" />
    <linearGradient
       id="linearGradient4555">
      <stop
         style="stop-color:#141618;stop-opacity:1"
         offset="0"
         id="stop4551" />
      <stop
         id="stop4559"
         offset="0.51820582"
         style="stop-color:#686868;stop-opacity:1" />
      <stop
         style="stop-color:#31363b;stop-opacity:1"
         offset="1"
         id="stop4553" />
    </linearGradient>
    <filter
       style="color-interpolation-filters:sRGB"
       id="filter4601"
       x="-0.030244762"
       width="1.0604895"
       y="-0.030100647"
       height="1.0602013">
      <feGaussianBlur
         stdDeviation="0.014790289"
         id="feGaussianBlur4603" />
    </filter>
    <linearGradient
       id="a"
       gradientTransform="matrix(0.44838932,0,0,0.42720976,210.83022,302.57049)"
       gradientUnits="userSpaceOnUse"
       x2="0"
       y1="543.79797"
       y2="502.655">
      <stop
         offset="0"
         stop-color="#c6cdd1"
         id="stop7" />
      <stop
         offset="1"
         stop-color="#e0e5e7"
         id="stop9" />
    </linearGradient>
    <linearGradient
       id="b"
       gradientUnits="userSpaceOnUse"
       x1="391.57101"
       x2="406.57101"
       y1="525.79797"
       y2="540.79797"
       gradientTransform="matrix(0.67258062,0,0,0.67258062,124.61211,169.05046)">
      <stop
         offset="0"
         id="stop12" />
      <stop
         offset="1"
         stop-opacity="0"
         id="stop14" />
    </linearGradient>
    <linearGradient
       id="c"
       gradientUnits="userSpaceOnUse"
       x1="393.57101"
       x2="407.57101"
       y1="527.67297"
       y2="541.67297"
       gradientTransform="matrix(0.67258062,0,0,0.67258062,-261.97664,-345.31831)">
      <stop
         offset="0"
         stop-color="#292c30"
         id="stop2-8" />
      <stop
         offset="1"
         stop-opacity="0"
         id="stop4-0" />
    </linearGradient>
    <linearGradient
       id="d"
       gradientTransform="matrix(1.1303955,0,0,1.0761317,-478.72752,-556.24186)"
       gradientUnits="userSpaceOnUse"
       x1="428.371"
       x2="428.371"
       y1="530.79797"
       y2="525.79797">
      <stop
         offset="0"
         stop-color="#da4453"
         id="stop37" />
      <stop
         offset="1"
         stop-color="#fa4e5f"
         id="stop39" />
    </linearGradient>
    <linearGradient
       id="e"
       gradientUnits="userSpaceOnUse"
       x1="353.57101"
       x2="353.57101"
       y1="505.798"
       y2="519.79797"
       gradientTransform="matrix(0.39563882,0,0,0.38433274,-128.44988,-184.80963)">
      <stop
         offset="0"
         stop-color="#31363b"
         id="stop32" />
      <stop
         offset="1"
         stop-color="#4d4d4d"
         id="stop34" />
    </linearGradient>
    <linearGradient
       id="f"
       gradientUnits="userSpaceOnUse"
       x1="350.57101"
       x2="350.57101"
       y1="505.798"
       y2="519.79797"
       gradientTransform="matrix(0.39563882,0,0,0.38433274,-128.44988,-184.80963)">
      <stop
         offset="0"
         stop-color="#7f8c8d"
         id="stop27" />
      <stop
         offset="1"
         stop-color="#afb0b3"
         id="stop29" />
    </linearGradient>
    <linearGradient
       id="g"
       gradientUnits="userSpaceOnUse"
       x1="356.57101"
       x2="356.57101"
       y1="519.79797"
       y2="505.798"
       gradientTransform="matrix(0.39563882,0,0,0.38433274,-128.44988,-184.80963)">
      <stop
         offset="0"
         stop-color="#afb0b3"
         id="stop22" />
      <stop
         offset="1"
         stop-color="#bdc3c7"
         id="stop24" />
    </linearGradient>
    <linearGradient
       id="h"
       gradientUnits="userSpaceOnUse"
       x1="358.57101"
       x2="358.57101"
       y1="519.79797"
       y2="505.798"
       gradientTransform="matrix(0.39563882,0,0,0.38433274,-128.44988,-184.80963)">
      <stop
         offset="0"
         stop-color="#4d4d4d"
         id="stop17" />
      <stop
         offset="1"
         stop-color="#585858"
         id="stop19" />
    </linearGradient>
  </defs>
  <g
     id="g902"
     transform="matrix(0.81326507,0,0,1,3.9959628,0.11895907)">
    <g
       transform="translate(-384.571,-515.798)"
       id="g54">
      <path
         d="m 383.26711,517.31136 h 21.52258 v 18.83225 h -21.52258 z"
         fill="url(#a)"
         id="path42"
         style="fill:url(#a);stroke-width:0.672581" />
      <path
         d="m 383.93969,534.79845 20.17742,-13.45161 0.67258,0.67258 v 14.12419 h -19.50484 z"
         fill="url(#b)"
         fill-rule="evenodd"
         opacity="0.2"
         id="path44"
         style="fill:url(#b);stroke-width:0.672581" />
      <path
         d="m 383.26711,517.31136 h 21.52258 v 2.69032 h -21.52258 z"
         fill="#566069"
         id="path46"
         style="stroke-width:0.672581" />
      <path
         d="m 383.26711,520.00168 h 21.52258 v 0.67258 h -21.52258 z"
         fill="#3daee9"
         id="path48"
         style="stroke-width:0.672581" />
      <path
         d="m 383.93969,521.34684 h 20.17742 v 13.45161 h -20.17742 z"
         fill="#ffffff"
         id="path50"
         style="stroke-width:0.672581" />
      <rect
         fill="#eff0f1"
         height="1.3451612"
         rx="0.81172431"
         width="1.6234486"
         x="402.49368"
         y="517.98395"
         id="rect52"
         style="stroke-width:0.738884" />
    </g>
    <path
       d="M 4.7103221,14.964969 3.9186947,9.5843242 6.094493,11.760123 l 4.15453,-2.1757988 1.226115,1.2267868 2.730677,-1.2267868 5.34029,5.3409628 v 4.075166 H 8.7458058 Z"
       fill="url(#c)"
       fill-opacity="0.2"
       id="path56"
       style="fill:url(#c);stroke-width:0.672581" />
    <path
       d="M 2.7324811,9.5850985 H 3.9193975 L 5.3041334,13.428426 6.6888693,9.5850985 H 7.8757858 L 5.8975916,14.965757 H 4.7106752 Z"
       fill="url(#d)"
       id="path58"
       style="fill:url(#d);stroke-width:0.389945" />
    <path
       d="M 7.0845081,14.965757 9.0627022,9.5850985 H 10.249619 L 8.2714246,14.965757 Z m 3.9563879,0 1.978194,-5.3806585 h 1.186917 l -1.978194,5.3806585 z"
       fill="url(#e)"
       id="path60"
       style="fill:url(#e);stroke-width:0.389945" />
    <path
       d="M 5.8975916,14.965757 7.8757858,9.5850985 H 9.0627022 L 7.0845081,14.965757 Z m 3.9563883,0 1.9781941,-5.3806585 h 1.186916 l -1.978194,5.3806585 z"
       fill="url(#f)"
       id="path62"
       style="fill:url(#f);stroke-width:0.389945" />
    <path
       d="M 11.040896,14.965757 H 9.8539799 L 7.8757858,9.5850985 h 1.1869164 z m 3.956389,0 H 13.810368 L 11.832174,9.5850985 h 1.186916 z"
       fill="url(#g)"
       id="path64"
       style="fill:url(#g);stroke-width:0.389945" />
    <path
       d="m 9.0627022,9.5850985 1.9781938,5.3806585 h 1.186917 L 10.249619,9.5850985 Z m 3.9563878,0 1.978195,5.3806585 h 1.186916 L 14.206007,9.5850985 Z"
       fill="url(#h)"
       id="path66"
       style="fill:url(#h);stroke-width:0.389945" />
  </g>
  <path
     style="display:inline;mix-blend-mode:normal;fill:url(#linearGradient3403);fill-opacity:1;stroke:url(#linearGradient20558);stroke-width:1.16242;stroke-linecap:butt;stroke-linejoin:round;stroke-miterlimit:4;stroke-dasharray:none;stroke-opacity:1;filter:url(#filter20720)"
     d="M 4.7043071,3.9814882 4.6913695,60.80196 H 58.59546 l 1.022155,-2.866369 c 0,0 -23.87537,0.766388 -32.844441,-4.140386 C 16.257548,48.042344 11.401114,4.0978197 11.401114,4.0978197 Z"
     id="path1686"
     sodipodi:nodetypes="ccccscc"
     transform="matrix(0.33313358,0,0,0.33313358,0.46592321,0.3633751)"
     inkscape:label="folder" />
  <rect
     style="display:inline;fill:none;fill-opacity:1;stroke:url(#linearGradient4557);stroke-width:3.71366;stroke-linejoin:round;stroke-miterlimit:7.8;stroke-dasharray:none;stroke-opacity:0.995146;filter:url(#filter4601)"
     id="rect4539"
     width="62.567089"
     height="62.866646"
     x="1.0323594"
     y="0.59551275"
     ry="6.2447233"
     rx="5.8029528"
     transform="matrix(0.31207379,0,0,0.31143771,1.0256417,1.0365367)"
     inkscape:label="contour" />
  <path
     d="m 15.086965,16.622904 h 3.614911 l -1.361977,1.361977 0.419937,0.419938 1.633422,-1.633422 0.445479,-0.445479 -0.445479,-0.445479 -1.633422,-1.633421 -0.419937,0.419938 1.361977,1.361976 h -3.614911 z"
     fill="#27ae60"
     id="path68"
     style="fill:#388f1f;fill-opacity:1;stroke-width:0.593971" />
</svg>

<svg width="22" height="22" version="1.1" viewBox="0 0 22 22" xmlns="http://www.w3.org/2000/svg" xmlns:xlink="http://www.w3.org/1999/xlink">
<defs>
<linearGradient id="linearGradient3403" x1="6.9492" x2="11.215" y1="4.5549" y2="59.052" gradientUnits="userSpaceOnUse">
<stop style="stop-color:#32373c" offset="0"/>
<stop style="stop-color:#1a1a1a" offset=".36805"/>
<stop style="stop-color:#31363b" offset="1"/>
</linearGradient>
<linearGradient id="linearGradient20558" x1="25.802" x2="25.111" y1="20.374" y2="58.913" gradientUnits="userSpaceOnUse">
<stop style="stop-color:#3d3d3d" offset="0"/>
<stop offset=".61772"/>
<stop style="stop-color:#3d3d3d" offset="1"/>
</linearGradient>
<linearGradient id="linearGradient4557" x1="43.5" x2="44.142" y1="64.012" y2=".30621" gradientTransform="translate(.36068 -.13017)" gradientUnits="userSpaceOnUse">
<stop style="stop-color:#141618" offset="0"/>
<stop style="stop-color:#686868" offset=".51821"/>
<stop style="stop-color:#31363b" offset="1"/>
</linearGradient>
<linearGradient id="a" x2="0" y1="543.8" y2="502.66" gradientTransform="matrix(.44839 0 0 .42721 210.83 302.57)" gradientUnits="userSpaceOnUse">
<stop stop-color="#c6cdd1" offset="0"/>
<stop stop-color="#e0e5e7" offset="1"/>
</linearGradient>
<linearGradient id="b" x1="391.57" x2="406.57" y1="525.8" y2="540.8" gradientTransform="matrix(.67258 0 0 .67258 124.61 169.05)" gradientUnits="userSpaceOnUse">
<stop offset="0"/>
<stop stop-opacity="0" offset="1"/>
</linearGradient>
<linearGradient id="c" x1="393.57" x2="407.57" y1="527.67" y2="541.67" gradientTransform="matrix(.67258 0 0 .67258 -261.98 -345.32)" gradientUnits="userSpaceOnUse">
<stop stop-color="#292c30" offset="0"/>
<stop stop-opacity="0" offset="1"/>
</linearGradient>
<linearGradient id="d" x1="428.37" x2="428.37" y1="530.8" y2="525.8" gradientTransform="matrix(1.1304 0 0 1.0761 -478.73 -556.24)" gradientUnits="userSpaceOnUse">
<stop stop-color="#da4453" offset="0"/>
<stop stop-color="#fa4e5f" offset="1"/>
</linearGradient>
<linearGradient id="e" x1="353.57" x2="353.57" y1="505.8" y2="519.8" gradientTransform="matrix(.39564 0 0 .38433 -128.45 -184.81)" gradientUnits="userSpaceOnUse">
<stop stop-color="#31363b" offset="0"/>
<stop stop-color="#4d4d4d" offset="1"/>
</linearGradient>
<linearGradient id="f" x1="350.57" x2="350.57" y1="505.8" y2="519.8" gradientTransform="matrix(.39564 0 0 .38433 -128.45 -184.81)" gradientUnits="userSpaceOnUse">
<stop stop-color="#7f8c8d" offset="0"/>
<stop stop-color="#afb0b3" offset="1"/>
</linearGradient>
<linearGradient id="g" x1="356.57" x2="356.57" y1="519.8" y2="505.8" gradientTransform="matrix(.39564 0 0 .38433 -128.45 -184.81)" gradientUnits="userSpaceOnUse">
<stop stop-color="#afb0b3" offset="0"/>
<stop stop-color="#bdc3c7" offset="1"/>
</linearGradient>
<linearGradient id="h" x1="358.57" x2="358.57" y1="519.8" y2="505.8" gradientTransform="matrix(.39564 0 0 .38433 -128.45 -184.81)" gradientUnits="userSpaceOnUse">
<stop stop-color="#4d4d4d" offset="0"/>
<stop stop-color="#585858" offset="1"/>
</linearGradient>
</defs>
<g transform="matrix(.81327 0 0 1 3.996 .11896)">
<g transform="translate(-384.57 -515.8)">
<path d="m383.27 517.31h21.523v18.832h-21.523z" fill="url(#a)" style="fill:url(#a);stroke-width:.67258"/>
<path d="m383.94 534.8 20.177-13.452 0.67258 0.67258v14.124h-19.505z" fill="url(#b)" fill-rule="evenodd" opacity=".2" style="fill:url(#b);stroke-width:.67258"/>
<path d="m383.27 517.31h21.523v2.6903h-21.523z" fill="#566069" style="stroke-width:.67258"/>
<path d="m383.27 520h21.523v0.67258h-21.523z" fill="#3daee9" style="stroke-width:.67258"/>
<path d="m383.94 521.35h20.177v13.452h-20.177z" fill="#fff" style="stroke-width:.67258"/>
<rect x="402.49" y="517.98" width="1.6234" height="1.3452" rx=".81172" fill="#eff0f1" style="stroke-width:.73888"/>
</g>
<path d="m4.7103 14.965-0.79163-5.3806 2.1758 2.1758 4.1545-2.1758 1.2261 1.2268 2.7307-1.2268 5.3403 5.341v4.0752h-10.8z" fill="url(#c)" fill-opacity=".2" style="fill:url(#c);stroke-width:.67258"/>
<path d="m2.7325 9.5851h1.1869l1.3847 3.8433 1.3847-3.8433h1.1869l-1.9782 5.3807h-1.1869z" fill="url(#d)" style="fill:url(#d);stroke-width:.38994"/>
<path d="m7.0845 14.966 1.9782-5.3807h1.1869l-1.9782 5.3807zm3.9564 0 1.9782-5.3807h1.1869l-1.9782 5.3807z" fill="url(#e)" style="fill:url(#e);stroke-width:.38994"/>
<path d="m5.8976 14.966 1.9782-5.3807h1.1869l-1.9782 5.3807zm3.9564 0 1.9782-5.3807h1.1869l-1.9782 5.3807z" fill="url(#f)" style="fill:url(#f);stroke-width:.38994"/>
<path d="m11.041 14.966h-1.1869l-1.9782-5.3807h1.1869zm3.9564 0h-1.1869l-1.9782-5.3807h1.1869z" fill="url(#g)" style="fill:url(#g);stroke-width:.38994"/>
<path d="m9.0627 9.5851 1.9782 5.3807h1.1869l-1.9782-5.3807zm3.9564 0 1.9782 5.3807h1.1869l-1.9782-5.3807z" fill="url(#h)" style="fill:url(#h);stroke-width:.38994"/>
</g>
<path transform="matrix(.33313 0 0 .33313 .46592 .36338)" d="m4.7043 3.9815-0.012938 56.82h53.904l1.0222-2.8664s-23.875 0.76639-32.844-4.1404c-10.516-5.7529-15.372-49.697-15.372-49.697z" style="fill:url(#linearGradient3403);mix-blend-mode:normal;stroke-linejoin:round;stroke-width:1.1624;stroke:url(#linearGradient20558)"/>
<rect transform="matrix(.31207 0 0 .31144 1.0256 1.0365)" x="1.0324" y=".59551" width="62.567" height="62.867" rx="5.803" ry="6.2447" style="fill:none;stroke-linejoin:round;stroke-miterlimit:7.8;stroke-opacity:.99515;stroke-width:3.7137;stroke:url(#linearGradient4557)"/>
<path d="m15.087 16.623h3.6149l-1.362 1.362 0.41994 0.41994 2.0789-2.0789-2.0789-2.0789-0.41994 0.41994 1.362 1.362h-3.6149z" fill="#27ae60" style="fill:#388f1f;stroke-width:.59397"/>
</svg>
